svg/nature/lotus_line.svg

<?xml version="1.0" encoding="UTF-8"?>
<svg width="24px" height="24px" viewBox="0 0 24 24" version="1.1" xmlns="http://www.w3.org/2000/svg" xmlns:xlink="http://www.w3.org/1999/xlink">
    <title>lotus_line</title>
    <g id="Icon" stroke="none" stroke-width="1" fill="none" fill-rule="evenodd">
        <g id="Nature" transform="translate(-576.000000, -2.000000)">
            <g id="lotus_line" transform="translate(576.000000, 2.000000)">
                <path d="M24,0 L24,24 L0,24 L0,0 L24,0 Z M12.5935,23.2578 L12.5819,23.2595 L12.5109,23.295 L12.4919,23.2987 L12.4767,23.295 L12.4057,23.2595 C12.3958,23.2564 12.387,23.259 12.3821,23.2649 L12.378,23.2758 L12.3609,23.7031 L12.3659,23.7235 L12.3769,23.7357 L12.4805,23.8097 L12.4953,23.8136 L12.5071,23.8097 L12.6107,23.7357 L12.6233,23.7197 L12.6267,23.7031 L12.6096,23.2758 C12.6076,23.2657 12.601,23.2593 12.5935,23.2578 Z M12.8584,23.1453 L12.8445,23.1473 L12.6598,23.2397 L12.6499,23.2499 L12.6472,23.2611 L12.6651,23.6906 L12.6699,23.7034 L12.6784,23.7105 L12.8793,23.8032 C12.8914,23.8069 12.9022,23.803 12.9078,23.7952 L12.9118,23.7812 L12.8777,23.1665 C12.8753,23.1546 12.8674,23.147 12.8584,23.1453 Z M12.143,23.1473 C12.1332,23.1424 12.1222,23.1453 12.1156,23.1526 L12.1099,23.1665 L12.0758,23.7812 C12.0751,23.7927 12.0828,23.8019 12.0926,23.8046 L12.1083,23.8032 L12.3092,23.7105 L12.3186,23.7024 L12.3225,23.6906 L12.3404,23.2611 L12.3372,23.2485 L12.3278,23.2397 L12.143,23.1473 Z" id="MingCute" fill-rule="nonzero"></path>
                <path d="M12,4 C12.6725,4 13.2345,4.43962 13.5986,4.80455 C14.013,5.21994 14.4116,5.78259 14.7581,6.43459 C15.2073,7.28008 15.5951,8.32578 15.813,9.49326 C16.4783,9.15145 17.1268,8.9056 17.7113,8.75302 C18.2037,8.62446 18.6839,8.55336 19.11,8.56325 C19.4796,8.57183 20.0443,8.64522 20.4497,9.05058 C20.8713,9.47224 20.9624,10.0976 20.9326,10.6681 C20.905,11.1963 20.7701,11.8057 20.5481,12.4369 C20.3056,13.1267 19.9452,13.8816 19.4597,14.6337 C19.9258,14.8126 20.3414,15.0182 20.6901,15.2349 C21.3101,15.6202 22,16.2029 22,17 C22,17.3548 21.8566,17.6421 21.7314,17.8307 C21.3197,18.4504 20.6121,18.8552 19.9538,19.1583 C18.9264,19.6314 17.5343,20 16,20 C14.4506,20 13.0397,19.6239 12,19.1368 C10.9603,19.6239 9.54937,20 8,20 C6.46567,20 5.07356,19.6314 4.04619,19.1583 C3.38789,18.8552 2.68034,18.4504 2.26863,17.8307 C2.14337,17.6421 2,17.3548 2,17 C2,16.2029 2.68993,15.6202 3.30994,15.2349 C3.65857,15.0182 4.07415,14.8127 4.54015,14.6337 C4.05468,13.8817 3.69426,13.1267 3.45168,12.4368 C3.22973,11.8057 3.09486,11.1962 3.06724,10.6681 C3.0374,10.0975 3.12849,9.47219 3.55016,9.05052 C3.95551,8.64517 4.52019,8.57177 4.88986,8.56319 C5.31594,8.5533 5.79613,8.6244 6.28853,8.75296 C6.87304,8.90556 7.52168,9.15144 8.18704,9.4933 C8.40485,8.3258 8.79267,7.28009 9.24192,6.43459 C9.58835,5.78259 9.98703,5.21994 10.4014,4.80455 C10.7655,4.43962 11.3275,4 12,4 Z M18.1448,16.3014 C17.5258,16.9485 16.827,17.519 16.0716,17.9997 C17.2702,17.9884 18.3502,17.6949 19.1173,17.3417 C19.3719,17.2244 19.5788,17.1067 19.7372,17 C19.2562,16.6761 18.6995,16.4602 18.1448,16.3014 Z M5.85513,16.3014 C5.30043,16.4602 4.74379,16.6761 4.26281,17 C4.42122,17.1067 4.62808,17.2244 4.88274,17.3417 C5.64975,17.6949 6.72977,17.9883 7.92828,17.9997 C7.17288,17.519 6.47409,16.9485 5.85513,16.3014 Z M12.1827,6.21706 C12.0131,6.04713 11.9869,6.04713 11.8173,6.21706 C11.5755,6.4595 11.2866,6.84876 11.0081,7.37302 C10.4524,8.41882 10,9.88386 10,11.5 C10,13.1161 10.4524,14.5812 11.0081,15.627 C11.2866,16.1512 11.5755,16.5405 11.8173,16.7829 C11.9868,16.9529 12.0131,16.9529 12.1827,16.7829 C12.4245,16.5405 12.7134,16.1512 12.9919,15.627 C13.5476,14.5812 14,13.1161 14,11.5 C14,9.88386 13.5476,8.41882 12.9919,7.37302 C12.7134,6.84876 12.4245,6.4595 12.1827,6.21706 Z M5.06457,10.5649 C5.07981,10.8528 5.16117,11.2693 5.33843,11.7734 C5.69192,12.7786 6.38109,14.0028 7.43925,15.0609 C7.98815,15.6098 8.58046,16.0583 9.16219,16.412 C8.52818,15.164 8.03418,13.5128 8.0017,11.6907 C7.2017,11.1811 6.41589,10.8532 5.78332,10.6881 C5.48681,10.6107 5.24473,10.5745 5.06457,10.5649 Z M18.9352,10.565 C18.7551,10.5745 18.513,10.6107 18.2165,10.6882 C17.584,10.8533 16.7982,11.1811 15.9983,11.6906 C15.9658,13.5128 15.4719,15.1639 14.8378,16.4119 C15.4195,16.0582 16.0117,15.6098 16.5606,15.061 C17.6187,14.0028 18.3079,12.7787 18.6614,11.7734 C18.8386,11.2693 18.92,10.8528 18.9352,10.565 Z" id="形状" fill="#09244B"></path>
            </g>
        </g>
    </g>
</svg>

<svg xmlns="http://www.w3.org/2000/svg" width="24" height="24"><g fill="none" fill-rule="evenodd"><path d="M24 0v24H0V0h24ZM12.594 23.258l-.012.002-.071.035-.02.004-.014-.004-.071-.036c-.01-.003-.019 0-.024.006l-.004.01-.017.428.005.02.01.013.104.074.015.004.012-.004.104-.074.012-.016.004-.017-.017-.427c-.002-.01-.009-.017-.016-.018Zm.264-.113-.014.002-.184.093-.01.01-.003.011.018.43.005.012.008.008.201.092c.012.004.023 0 .029-.008l.004-.014-.034-.614c-.003-.012-.01-.02-.02-.022Zm-.715.002a.023.023 0 0 0-.027.006l-.006.014-.034.614c0 .012.007.02.017.024l.015-.002.201-.093.01-.008.003-.011.018-.43-.003-.012-.01-.01-.184-.092Z"/><path fill="#09244B" d="M12 4c.672 0 1.235.44 1.599.805.414.415.813.978 1.16 1.63.448.845.836 1.89 1.054 3.058a9.419 9.419 0 0 1 1.898-.74c.493-.129.973-.2 1.399-.19.37.009.934.082 1.34.488.421.421.512 1.047.483 1.617-.028.528-.163 1.138-.385 1.769a10.55 10.55 0 0 1-1.088 2.197 7.31 7.31 0 0 1 1.23.6c.62.386 1.31.969 1.31 1.766 0 .355-.143.642-.269.83-.411.62-1.119 1.025-1.777 1.328-1.028.473-2.42.842-3.954.842-1.55 0-2.96-.376-4-.863-1.04.487-2.45.863-4 .863-1.534 0-2.926-.369-3.954-.842-.658-.303-1.366-.708-1.777-1.327A1.509 1.509 0 0 1 2 17c0-.797.69-1.38 1.31-1.765a7.316 7.316 0 0 1 1.23-.601 10.551 10.551 0 0 1-1.088-2.197c-.222-.631-.357-1.24-.385-1.769-.03-.57.061-1.196.483-1.617.406-.406.97-.48 1.34-.488.426-.01.906.061 1.399.19a9.42 9.42 0 0 1 1.898.74 10.808 10.808 0 0 1 1.055-3.058c.346-.652.745-1.215 1.16-1.63C10.765 4.44 11.327 4 12 4Zm6.145 12.301A11.168 11.168 0 0 1 16.072 18c1.198-.012 2.278-.305 3.045-.658.255-.118.462-.235.62-.342-.48-.324-1.037-.54-1.592-.699Zm-12.29 0c-.555.16-1.111.375-1.592.699.158.107.365.224.62.342.767.353 1.847.646 3.045.658A11.166 11.166 0 0 1 5.855 16.3Zm6.328-10.084c-.17-.17-.196-.17-.366 0-.242.243-.53.632-.809 1.156A8.989 8.989 0 0 0 10 11.5a8.99 8.99 0 0 0 1.008 4.127c.279.524.568.914.81 1.156.169.17.195.17.365 0 .242-.242.53-.632.809-1.156A8.99 8.99 0 0 0 14 11.5a8.989 8.989 0 0 0-1.008-4.127c-.279-.524-.568-.913-.81-1.156Zm-7.118 4.348c.015.288.096.704.273 1.208.354 1.006 1.043 2.23 2.101 3.288a9.214 9.214 0 0 0 1.723 1.351 11.017 11.017 0 0 1-1.16-4.721c-.8-.51-1.586-.838-2.219-1.003a3.704 3.704 0 0 0-.718-.123Zm13.87 0c-.18.01-.422.046-.718.123-.633.165-1.419.493-2.219 1.003a11.016 11.016 0 0 1-1.16 4.72 9.217 9.217 0 0 0 1.723-1.35c1.058-1.058 1.747-2.282 2.1-3.288.178-.504.259-.92.274-1.208Z"/></g></svg>
